logo/pkg.svg

<?xml version="1.0" encoding="UTF-8"?>
<svg width="256px" height="229px" viewBox="0 0 256 229" version="1.1" xmlns="http://www.w3.org/2000/svg" xmlns:xlink="http://www.w3.org/1999/xlink" preserveAspectRatio="xMidYMid">
    <g>
        <path d="M130.3072,0 C173.0052,61.443 214.2812,120.842 256.0002,180.877 C214.4822,196.875 173.5742,212.636 131.9022,228.693 L131.9022,228.693 L131.9022,203.973 C134.9252,202.122 138.1572,200.142 141.6742,197.988 C137.9312,132.783 134.1942,67.695 130.3072,0 Z M125.6808,0.0042 C122.475559,55.8728897 119.361409,110.140971 116.256729,164.254382 L115.48071,177.78035 C115.092751,184.542559 114.704834,191.304234 114.3168,198.0682 C117.6368,200.0372 120.7528,201.8852 124.0728,203.8542 L124.0728,203.8542 L124.0728,228.6652 C113.032,224.414 102.03152,220.178231 91.041683,215.946516 L74.5612,209.60056 C49.84132,200.08192 25.1002,190.555 -0.0002,180.8902 C5.95194286,172.323629 11.8966367,163.767771 17.8390741,155.215156 L26.7516867,142.387731 C59.4298204,95.3559041 92.1182286,48.3091286 125.6808,0.0042 Z" fill="#000000"></path>
    </g>
</svg>

<svg viewBox="0 0 256 229" xmlns="http://www.w3.org/2000/svg"><path d="M130.3 0c42.69 61.443 83.97 120.842 125.69 180.877 -41.52 15.99-82.43 31.75-124.1 47.81v0 -24.72c3.02-1.86 6.25-3.84 9.77-5.99 -3.75-65.21-7.48-130.3-11.37-197.99Zm-4.63 0c-3.21 55.86-6.32 110.13-9.43 164.25l-.78 13.52c-.39 6.76-.78 13.52-1.17 20.28 3.32 1.96 6.43 3.81 9.75 5.78v0 24.81c-11.05-4.26-22.05-8.49-33.04-12.72l-16.49-6.35c-24.72-9.52-49.47-19.05-74.57-28.72 5.95-8.57 11.89-17.13 17.83-25.68l8.91-12.83C59.35 95.3 92.04 48.26 125.6-.05Z"/></svg>
